; generated by PrusaSlicer 2.3.0+win64 on 2021-07-18 at 08:15:36 UTC

; 

; external perimeters extrusion width = 0.45mm
; perimeters extrusion width = 0.45mm
; infill extrusion width = 0.45mm
; solid infill extrusion width = 0.45mm
; top infill extrusion width = 0.40mm
; support material extrusion width = 0.35mm
; first layer extrusion width = 0.42mm

M73 P0 R86
M73 Q0 S87
M201 X1000 Y1000 Z200 E5000 ; sets maximum accelerations, mm/sec^2
M203 X200 Y200 Z12 E120 ; sets maximum feedrates, mm/sec
M204 P1250 R1250 T1250 ; sets acceleration (P, T) and retract acceleration (R), mm/sec^2
M205 X8.00 Y8.00 Z0.40 E4.50 ; sets the jerk limits, mm/sec
M205 S0 T0 ; sets the minimum extruding and travel feed rate, mm/sec
M107 ; disable fan
;TYPE:Custom
M862.3 P "MK3" ; printer model check
M862.1 P0.4 ; nozzle diameter check
M115 U3.9.2 ; tell printer latest fw version
G90 ; use absolute coordinates
M83 ; extruder relative mode
M104 S215 ; set extruder temp
M140 S60 ; set bed temp
M190 S60 ; wait for bed temp
M109 S215 ; wait for extruder temp
G28 W ; home all without mesh bed level
G80 ; mesh bed leveling
G1 Y-3.0 F1000.0 ; go outside print area
G92 E0.0
G1 X60.0 E9.0 F1000.0 ; intro line
G1 X100.0 E12.5 F1000.0 ; intro line
G92 E0.0
M221 S95

; Don't change E values below. Excessive value can damage the printer.

G21 ; set units to millimeters
G90 ; use absolute coordinates
M83 ; use relative distances for extrusion
M900 K0.05 ; Filament gcode LA 1.5
M900 K30 ; Filament gcode LA 1.0
;LAYER_CHANGE
;Z:0.2
;HEIGHT:0.2
;BEFORE_LAYER_CHANGE
G92 E0.0
;0.2


G1 E-0.80000 F2100.000 ; retract
G1 Z0.400 F10800.000 ; lift Z
;AFTER_LAYER_CHANGE
;0.2
G1 X87.030 Y83.960 ; move to first skirt point
G1 Z0.200 ; restore layer Z
G1 E0.80000 F2100.000 ; unretract
M204 S1000 ; adjust acceleration
;TYPE:Skirt
;WIDTH:0.42
G1 F1200.000
G1 X87.731 Y83.680 E0.02367 ; skirt
G1 X104.127 Y80.126 E0.52600 ; skirt
M73 Q0 S86
G1 X161.754 Y80.123 E1.80686 ; skirt
G1 X162.649 Y80.299 E0.02860 ; skirt
G1 X163.412 Y80.800 E0.02860 ; skirt
G1 X163.929 Y81.551 E0.02860 ; skirt
G1 X164.126 Y82.442 E0.02860 ; skirt
G1 X164.126 Y127.557 E1.41456 ; skirt
G1 X164.036 Y128.151 E0.01882 ; skirt
G1 X163.802 Y128.699 E0.01870 ; skirt
G1 X163.439 Y129.172 E0.01870 ; skirt
G1 X162.970 Y129.540 E0.01870 ; skirt
G1 X162.391 Y129.789 E0.01977 ; skirt
G1 X161.763 Y129.877 E0.01989 ; skirt
G1 X104.117 Y129.873 E1.80744 ; skirt
G1 X87.653 Y126.301 E0.52822 ; skirt
G1 X86.824 Y125.902 E0.02884 ; skirt
G1 X86.209 Y125.219 E0.02884 ; skirt
G1 X85.961 Y124.643 E0.01965 ; skirt
G1 X85.873 Y124.022 E0.01965 ; skirt
G1 X85.873 Y85.954 E1.19360 ; skirt
G1 X85.961 Y85.360 E0.01882 ; skirt
G1 X86.194 Y84.807 E0.01882 ; skirt
G1 X86.558 Y84.330 E0.01882 ; skirt
G1 X86.983 Y83.997 E0.01694 ; skirt
;WIPE_START
G1 F8640.000
G1 X87.731 Y83.680 E-0.18761 ; wipe and retract
G1 X90.154 Y83.155 E-0.57239 ; wipe and retract
;WIPE_END
G1 E-0.04000 F2100.000 ; retract
G1 Z0.600 F10800.000 ; lift Z
G1 X148.337 Y121.913 ; move to first perimeter point
G1 Z0.200 ; restore layer Z
G1 E0.80000 F2100.000 ; unretract
;TYPE:Perimeter
G1 F1200.000
G1 X105.663 Y121.913 E1.33802 ; perimeter
G1 X105.663 Y126.913 E0.15677 ; perimeter
G1 X104.837 Y126.913 E0.02589 ; perimeter
G1 X104.837 Y83.087 E1.37413 ; perimeter
G1 X161.163 Y83.087 E1.76606 ; perimeter
G1 X161.163 Y126.913 E1.37413 ; perimeter
G1 X148.337 Y126.913 E0.40215 ; perimeter
G1 X148.337 Y121.973 E0.15489 ; perimeter
G1 X147.960 Y122.290 F10800.000 ; move to first perimeter point
;TYPE:External perimeter
G1 F1200.000
G1 X106.040 Y122.290 E1.31437 ; perimeter
G1 X106.040 Y127.290 E0.15677 ; perimeter
G1 X104.460 Y127.290 E0.04954 ; perimeter
G1 X104.460 Y82.710 E1.39777 ; perimeter
G1 X161.540 Y82.710 E1.78970 ; perimeter
M73 P0 R85
G1 X161.540 Y127.290 E1.39777 ; perimeter
G1 X147.960 Y127.290 E0.42579 ; perimeter
G1 X147.960 Y122.350 E0.15489 ; perimeter
G1 X147.802 Y121.923 F10800.000 ; move inwards before travel
;WIPE_START
G1 F8640.000
G1 X144.669 Y122.345 E-0.76000 ; wipe and retract
;WIPE_END
G1 E-0.04000 F2100.000 ; retract
G1 Z0.600 F10800.000 ; lift Z
G1 X148.450 Y126.319 ; move to first infill point
G1 Z0.200 ; restore layer Z
G1 E0.80000 F2100.000 ; unretract
;TYPE:Solid infill
;WIDTH:0.420199
G1 F1200.000
G1 X148.761 Y126.630 E0.01379 ; infill
G1 X149.295 Y126.630 E0.01674 ; infill
G1 X148.620 Y125.955 E0.02994 ; infill
G1 X148.620 Y125.422 E0.01674 ; infill
G1 X149.828 Y126.630 E0.05361 ; infill
G1 X150.362 Y126.630 E0.01674 ; infill
G1 X148.620 Y124.888 E0.07728 ; infill
G1 X148.620 Y124.355 E0.01674 ; infill
G1 X150.895 Y126.630 E0.10095 ; infill
G1 X151.429 Y126.630 E0.01674 ; infill
G1 X148.620 Y123.821 E0.12462 ; infill
G1 X148.620 Y123.288 E0.01674 ; infill
G1 X151.962 Y126.630 E0.14829 ; infill
G1 X152.496 Y126.630 E0.01674 ; infill
G1 X148.620 Y122.754 E0.17196 ; infill
G1 X148.620 Y122.220 E0.01674 ; infill
G1 X153.199 Y126.800 E0.20316 ; infill
;WIPE_START
G1 F8640.000
G1 X150.872 Y124.472 E-0.76000 ; wipe and retract
;WIPE_END
G1 E-0.04000 F2100.000 ; retract
G1 Z0.600 F10800.000 ; lift Z
G1 X161.050 Y83.963 ; move to first infill point
G1 Z0.200 ; restore layer Z
G1 E0.80000 F2100.000 ; unretract
G1 F1200.000
G1 X160.457 Y83.370 E0.02631 ; infill
G1 X159.923 Y83.370 E0.01674 ; infill
G1 X160.880 Y84.327 E0.04245 ; infill
G1 X160.880 Y84.860 E0.01674 ; infill
G1 X159.390 Y83.370 E0.06612 ; infill
G1 X158.856 Y83.370 E0.01674 ; infill
G1 X160.880 Y85.394 E0.08979 ; infill
G1 X160.880 Y85.927 E0.01674 ; infill
G1 X158.323 Y83.370 E0.11347 ; infill
G1 X157.789 Y83.370 E0.01674 ; infill
G1 X160.880 Y86.461 E0.13714 ; infill
G1 X160.880 Y86.995 E0.01674 ; infill
G1 X157.255 Y83.370 E0.16081 ; infill
G1 X156.722 Y83.370 E0.01674 ; infill
G1 X160.880 Y87.528 E0.18448 ; infill
G1 X160.880 Y88.062 E0.01674 ; infill
G1 X156.188 Y83.370 E0.20815 ; infill
G1 X155.655 Y83.370 E0.01674 ; infill
G1 X160.880 Y88.595 E0.23182 ; infill
G1 X160.880 Y89.129 E0.01674 ; infill
G1 X155.121 Y83.370 E0.25549 ; infill
G1 X154.588 Y83.370 E0.01674 ; infill
G1 X160.880 Y89.662 E0.27916 ; infill
G1 X160.880 Y90.196 E0.01674 ; infill
G1 X154.054 Y83.370 E0.30283 ; infill
G1 X153.521 Y83.370 E0.01674 ; infill
G1 X160.880 Y90.729 E0.32651 ; infill
G1 X160.880 Y91.263 E0.01674 ; infill
G1 X152.987 Y83.370 E0.35018 ; infill
G1 X152.454 Y83.370 E0.01674 ; infill
G1 X160.880 Y91.796 E0.37385 ; infill
G1 X160.880 Y92.330 E0.01674 ; infill
G1 X151.920 Y83.370 E0.39752 ; infill
G1 X151.386 Y83.370 E0.01674 ; infill
G1 X160.880 Y92.864 E0.42119 ; infill
M73 Q1 S86
G1 X160.880 Y93.397 E0.01674 ; infill
G1 X150.853 Y83.370 E0.44486 ; infill
M73 P1 R85
G1 X150.319 Y83.370 E0.01674 ; infill
G1 X160.880 Y93.931 E0.46853 ; infill
G1 X160.880 Y94.464 E0.01674 ; infill
G1 X149.786 Y83.370 E0.49220 ; infill
G1 X149.252 Y83.370 E0.01674 ; infill
G1 X160.880 Y94.998 E0.51587 ; infill
G1 X160.880 Y95.531 E0.01674 ; infill
G1 X148.719 Y83.370 E0.53955 ; infill
G1 X148.185 Y83.370 E0.01674 ; infill
G1 X160.880 Y96.065 E0.56322 ; infill
G1 X160.880 Y96.598 E0.01674 ; infill
G1 X147.652 Y83.370 E0.58689 ; infill
G1 X147.118 Y83.370 E0.01674 ; infill
G1 X160.880 Y97.132 E0.61056 ; infill
G1 X160.880 Y97.666 E0.01674 ; infill
G1 X146.584 Y83.370 E0.63423 ; infill
G1 X146.051 Y83.370 E0.01674 ; infill
G1 X160.880 Y98.199 E0.65790 ; infill
G1 X160.880 Y98.733 E0.01674 ; infill
G1 X145.517 Y83.370 E0.68157 ; infill
G1 X144.984 Y83.370 E0.01674 ; infill
G1 X160.880 Y99.266 E0.70524 ; infill
G1 X160.880 Y99.800 E0.01674 ; infill
G1 X144.450 Y83.370 E0.72892 ; infill
G1 X143.917 Y83.370 E0.01674 ; infill
G1 X160.880 Y100.333 E0.75259 ; infill
G1 X160.880 Y100.867 E0.01674 ; infill
G1 X143.383 Y83.370 E0.77626 ; infill
G1 X142.850 Y83.370 E0.01674 ; infill
G1 X160.880 Y101.400 E0.79993 ; infill
M73 Q1 S85
G1 X160.880 Y101.934 E0.01674 ; infill
G1 X142.316 Y83.370 E0.82360 ; infill
G1 X141.782 Y83.370 E0.01674 ; infill
G1 X160.880 Y102.468 E0.84727 ; infill
G1 X160.880 Y103.001 E0.01674 ; infill
G1 X141.249 Y83.370 E0.87094 ; infill
G1 X140.715 Y83.370 E0.01674 ; infill
G1 X160.880 Y103.535 E0.89461 ; infill
G1 X160.880 Y104.068 E0.01674 ; infill
G1 X140.182 Y83.370 E0.91828 ; infill
G1 X139.648 Y83.370 E0.01674 ; infill
G1 X160.880 Y104.602 E0.94196 ; infill
G1 X160.880 Y105.135 E0.01674 ; infill
G1 X139.115 Y83.370 E0.96563 ; infill
G1 X138.581 Y83.370 E0.01674 ; infill
G1 X160.880 Y105.669 E0.98930 ; infill
G1 X160.880 Y106.202 E0.01674 ; infill
G1 X138.048 Y83.370 E1.01297 ; infill
G1 X137.514 Y83.370 E0.01674 ; infill
G1 X160.880 Y106.736 E1.03664 ; infill
G1 X160.880 Y107.270 E0.01674 ; infill
G1 X136.980 Y83.370 E1.06031 ; infill
G1 X136.447 Y83.370 E0.01674 ; infill
G1 X160.880 Y107.803 E1.08398 ; infill
G1 X160.880 Y108.337 E0.01674 ; infill
G1 X135.913 Y83.370 E1.10765 ; infill
G1 X135.380 Y83.370 E0.01674 ; infill
G1 X160.880 Y108.870 E1.13132 ; infill
G1 X160.880 Y109.404 E0.01674 ; infill
G1 X134.846 Y83.370 E1.15500 ; infill
G1 X134.313 Y83.370 E0.01674 ; infill
G1 X160.880 Y109.937 E1.17867 ; infill
G1 X160.880 Y110.471 E0.01674 ; infill
G1 X133.779 Y83.370 E1.20234 ; infill
G1 X133.246 Y83.370 E0.01674 ; infill
G1 X160.880 Y111.004 E1.22601 ; infill
M73 P1 R84
G1 X160.880 Y111.538 E0.01674 ; infill
G1 X132.712 Y83.370 E1.24968 ; infill
G1 X132.178 Y83.370 E0.01674 ; infill
G1 X160.880 Y112.072 E1.27335 ; infill
G1 X160.880 Y112.605 E0.01674 ; infill
G1 X131.645 Y83.370 E1.29702 ; infill
M73 P2 R84
M73 Q2 S85
G1 X131.111 Y83.370 E0.01674 ; infill
G1 X160.880 Y113.139 E1.32069 ; infill
G1 X160.880 Y113.672 E0.01674 ; infill
G1 X130.578 Y83.370 E1.34437 ; infill
G1 X130.044 Y83.370 E0.01674 ; infill
G1 X160.880 Y114.206 E1.36804 ; infill
G1 X160.880 Y114.739 E0.01674 ; infill
G1 X129.511 Y83.370 E1.39171 ; infill
G1 X128.977 Y83.370 E0.01674 ; infill
G1 X160.880 Y115.273 E1.41538 ; infill
G1 X160.880 Y115.806 E0.01674 ; infill
G1 X128.444 Y83.370 E1.43905 ; infill
G1 X127.910 Y83.370 E0.01674 ; infill
G1 X160.880 Y116.340 E1.46272 ; infill
G1 X160.880 Y116.873 E0.01674 ; infill
G1 X127.377 Y83.370 E1.48639 ; infill
G1 X126.843 Y83.370 E0.01674 ; infill
G1 X160.880 Y117.407 E1.51006 ; infill
G1 X160.880 Y117.941 E0.01674 ; infill
G1 X126.309 Y83.370 E1.53373 ; infill
G1 X125.776 Y83.370 E0.01674 ; infill
G1 X160.880 Y118.474 E1.55741 ; infill
M73 Q2 S84
G1 X160.880 Y119.008 E0.01674 ; infill
G1 X125.242 Y83.370 E1.58108 ; infill
G1 X124.709 Y83.370 E0.01674 ; infill
G1 X160.880 Y119.541 E1.60475 ; infill
G1 X160.880 Y120.075 E0.01674 ; infill
G1 X124.175 Y83.370 E1.62842 ; infill
G1 X123.642 Y83.370 E0.01674 ; infill
G1 X160.880 Y120.608 E1.65209 ; infill
G1 X160.880 Y121.142 E0.01674 ; infill
G1 X123.108 Y83.370 E1.67576 ; infill
G1 X122.575 Y83.370 E0.01674 ; infill
G1 X160.880 Y121.675 E1.69943 ; infill
G1 X160.880 Y122.209 E0.01674 ; infill
G1 X122.041 Y83.370 E1.72310 ; infill
G1 X121.507 Y83.370 E0.01674 ; infill
G1 X160.880 Y122.743 E1.74677 ; infill
G1 X160.880 Y123.276 E0.01674 ; infill
G1 X120.974 Y83.370 E1.77045 ; infill
G1 X120.440 Y83.370 E0.01674 ; infill
G1 X160.880 Y123.810 E1.79412 ; infill
M73 P3 R84
M73 Q3 S84
G1 X160.880 Y124.343 E0.01674 ; infill
G1 X119.907 Y83.370 E1.81779 ; infill
M73 P3 R83
G1 X119.373 Y83.370 E0.01674 ; infill
G1 X160.880 Y124.877 E1.84146 ; infill
G1 X160.880 Y125.410 E0.01674 ; infill
G1 X118.840 Y83.370 E1.86513 ; infill
G1 X118.306 Y83.370 E0.01674 ; infill
G1 X160.880 Y125.944 E1.88880 ; infill
G1 X160.880 Y126.477 E0.01674 ; infill
G1 X117.773 Y83.370 E1.91247 ; infill
G1 X117.239 Y83.370 E0.01674 ; infill
G1 X160.499 Y126.630 E1.91925 ; infill
G1 X159.966 Y126.630 E0.01674 ; infill
G1 X116.705 Y83.370 E1.91925 ; infill
G1 X116.172 Y83.370 E0.01674 ; infill
G1 X159.432 Y126.630 E1.91925 ; infill
G1 X158.899 Y126.630 E0.01674 ; infill
G1 X115.638 Y83.370 E1.91925 ; infill
G1 X115.105 Y83.370 E0.01674 ; infill
G1 X158.365 Y126.630 E1.91925 ; infill
M73 Q3 S83
G1 X157.831 Y126.630 E0.01674 ; infill
G1 X114.571 Y83.370 E1.91925 ; infill
G1 X114.038 Y83.370 E0.01674 ; infill
G1 X157.298 Y126.630 E1.91925 ; infill
G1 X156.764 Y126.630 E0.01674 ; infill
G1 X113.504 Y83.370 E1.91925 ; infill
G1 X112.971 Y83.370 E0.01674 ; infill
G1 X156.231 Y126.630 E1.91925 ; infill
G1 X155.697 Y126.630 E0.01674 ; infill
G1 X112.437 Y83.370 E1.91925 ; infill
G1 X111.903 Y83.370 E0.01674 ; infill
G1 X155.164 Y126.630 E1.91925 ; infill
G1 X154.630 Y126.630 E0.01674 ; infill
G1 X111.370 Y83.370 E1.91925 ; infill
M73 P4 R83
M73 Q4 S83
G1 X110.836 Y83.370 E0.01674 ; infill
G1 X154.097 Y126.630 E1.91925 ; infill
G1 X153.563 Y126.630 E0.01674 ; infill
G1 X110.303 Y83.370 E1.91925 ; infill
G1 X109.769 Y83.370 E0.01674 ; infill
G1 X148.030 Y121.630 E1.69742 ; infill
M73 P4 R82
G1 X147.496 Y121.630 E0.01674 ; infill
G1 X109.236 Y83.370 E1.69742 ; infill
G1 X108.702 Y83.370 E0.01674 ; infill
G1 X146.962 Y121.630 E1.69742 ; infill
G1 X146.429 Y121.630 E0.01674 ; infill
G1 X108.169 Y83.370 E1.69742 ; infill
G1 X107.635 Y83.370 E0.01674 ; infill
G1 X145.895 Y121.630 E1.69742 ; infill
G1 X145.362 Y121.630 E0.01674 ; infill
G1 X107.101 Y83.370 E1.69742 ; infill
G1 X106.568 Y83.370 E0.01674 ; infill
G1 X144.828 Y121.630 E1.69742 ; infill
G1 X144.295 Y121.630 E0.01674 ; infill
G1 X106.034 Y83.370 E1.69742 ; infill
G1 X105.501 Y83.370 E0.01674 ; infill
G1 X143.761 Y121.630 E1.69742 ; infill
G1 X143.228 Y121.630 E0.01674 ; infill
G1 X105.120 Y83.522 E1.69065 ; infill
G1 X105.120 Y84.056 E0.01674 ; infill
G1 X142.694 Y121.630 E1.66698 ; infill
G1 X142.160 Y121.630 E0.01674 ; infill
G1 X105.120 Y84.590 E1.64331 ; infill
M73 Q4 S82
G1 X105.120 Y85.123 E0.01674 ; infill
G1 X141.627 Y121.630 E1.61964 ; infill
G1 X141.093 Y121.630 E0.01674 ; infill
G1 X105.120 Y85.657 E1.59597 ; infill
G1 X105.120 Y86.190 E0.01674 ; infill
G1 X140.560 Y121.630 E1.57229 ; infill
G1 X140.026 Y121.630 E0.01674 ; infill
G1 X105.120 Y86.724 E1.54862 ; infill
M73 P5 R82
G1 X105.120 Y87.257 E0.01674 ; infill
G1 X139.493 Y121.630 E1.52495 ; infill
M73 Q5 S82
G1 X138.959 Y121.630 E0.01674 ; infill
G1 X105.120 Y87.791 E1.50128 ; infill
G1 X105.120 Y88.324 E0.01674 ; infill
G1 X138.426 Y121.630 E1.47761 ; infill
G1 X137.892 Y121.630 E0.01674 ; infill
G1 X105.120 Y88.858 E1.45394 ; infill
G1 X105.120 Y89.392 E0.01674 ; infill
G1 X137.358 Y121.630 E1.43027 ; infill
G1 X136.825 Y121.630 E0.01674 ; infill
G1 X105.120 Y89.925 E1.40660 ; infill
G1 X105.120 Y90.459 E0.01674 ; infill
G1 X136.291 Y121.630 E1.38293 ; infill
G1 X135.758 Y121.630 E0.01674 ; infill
G1 X105.120 Y90.992 E1.35925 ; infill
G1 X105.120 Y91.526 E0.01674 ; infill
G1 X135.224 Y121.630 E1.33558 ; infill
M73 P5 R81
G1 X134.691 Y121.630 E0.01674 ; infill
G1 X105.120 Y92.059 E1.31191 ; infill
G1 X105.120 Y92.593 E0.01674 ; infill
G1 X134.157 Y121.630 E1.28824 ; infill
G1 X133.624 Y121.630 E0.01674 ; infill
G1 X105.120 Y93.126 E1.26457 ; infill
G1 X105.120 Y93.660 E0.01674 ; infill
G1 X133.090 Y121.630 E1.24090 ; infill
G1 X132.556 Y121.630 E0.01674 ; infill
G1 X105.120 Y94.194 E1.21723 ; infill
G1 X105.120 Y94.727 E0.01674 ; infill
G1 X132.023 Y121.630 E1.19356 ; infill
G1 X131.489 Y121.630 E0.01674 ; infill
G1 X105.120 Y95.261 E1.16989 ; infill
G1 X105.120 Y95.794 E0.01674 ; infill
G1 X130.956 Y121.630 E1.14621 ; infill
G1 X130.422 Y121.630 E0.01674 ; infill
G1 X105.120 Y96.328 E1.12254 ; infill
G1 X105.120 Y96.861 E0.01674 ; infill
G1 X129.889 Y121.630 E1.09887 ; infill
G1 X129.355 Y121.630 E0.01674 ; infill
G1 X105.120 Y97.395 E1.07520 ; infill
G1 X105.120 Y97.928 E0.01674 ; infill
G1 X128.822 Y121.630 E1.05153 ; infill
G1 X128.288 Y121.630 E0.01674 ; infill
G1 X105.120 Y98.462 E1.02786 ; infill
G1 X105.120 Y98.996 E0.01674 ; infill
G1 X127.754 Y121.630 E1.00419 ; infill
G1 X127.221 Y121.630 E0.01674 ; infill
G1 X105.120 Y99.529 E0.98052 ; infill
G1 X105.120 Y100.063 E0.01674 ; infill
G1 X126.687 Y121.630 E0.95684 ; infill
M73 Q5 S81
G1 X126.154 Y121.630 E0.01674 ; infill
G1 X105.120 Y100.596 E0.93317 ; infill
M73 P6 R81
G1 X105.120 Y101.130 E0.01674 ; infill
G1 X125.620 Y121.630 E0.90950 ; infill
M73 Q6 S81
