; generated by PrusaSlicer 2.3.0+win64 on 2021-07-18 at 08:14:39 UTC

; 

; external perimeters extrusion width = 0.45mm
; perimeters extrusion width = 0.45mm
; infill extrusion width = 0.45mm
; solid infill extrusion width = 0.45mm
; top infill extrusion width = 0.40mm
; support material extrusion width = 0.35mm
; first layer extrusion width = 0.42mm

M73 P0 R75
M73 Q0 S75
M201 X1000 Y1000 Z200 E5000 ; sets maximum accelerations, mm/sec^2
M203 X200 Y200 Z12 E120 ; sets maximum feedrates, mm/sec
M204 P1250 R1250 T1250 ; sets acceleration (P, T) and retract acceleration (R), mm/sec^2
M205 X8.00 Y8.00 Z0.40 E4.50 ; sets the jerk limits, mm/sec
M205 S0 T0 ; sets the minimum extruding and travel feed rate, mm/sec
M107 ; disable fan
;TYPE:Custom
M862.3 P "MK3" ; printer model check
M862.1 P0.4 ; nozzle diameter check
M115 U3.9.2 ; tell printer latest fw version
G90 ; use absolute coordinates
M83 ; extruder relative mode
M104 S215 ; set extruder temp
M140 S60 ; set bed temp
M190 S60 ; wait for bed temp
M109 S215 ; wait for extruder temp
G28 W ; home all without mesh bed level
G80 ; mesh bed leveling
G1 Y-3.0 F1000.0 ; go outside print area
G92 E0.0
G1 X60.0 E9.0 F1000.0 ; intro line
G1 X100.0 E12.5 F1000.0 ; intro line
G92 E0.0
M221 S95

; Don't change E values below. Excessive value can damage the printer.

G21 ; set units to millimeters
G90 ; use absolute coordinates
M83 ; use relative distances for extrusion
M900 K0.05 ; Filament gcode LA 1.5
M900 K30 ; Filament gcode LA 1.0
;LAYER_CHANGE
;Z:0.2
;HEIGHT:0.2
;BEFORE_LAYER_CHANGE
G92 E0.0
;0.2


G1 E-0.80000 F2100.000 ; retract
G1 Z0.400 F10800.000 ; lift Z
;AFTER_LAYER_CHANGE
;0.2
G1 X95.435 Y80.267 ; move to first skirt point
G1 Z0.200 ; restore layer Z
G1 E0.80000 F2100.000 ; unretract
M204 S1000 ; adjust acceleration
;TYPE:Skirt
;WIDTH:0.42
G1 F1200.000
G1 X96.226 Y80.123 E0.02520 ; skirt
G1 X153.754 Y80.123 E1.80374 ; skirt
G1 X154.645 Y80.298 E0.02849 ; skirt
G1 X155.406 Y80.795 E0.02849 ; skirt
G1 X155.925 Y81.541 E0.02849 ; skirt
G1 X156.126 Y82.427 E0.02849 ; skirt
G1 X156.127 Y127.546 E1.41468 ; skirt
G1 X156.061 Y128.055 E0.01609 ; skirt
G1 X155.890 Y128.535 E0.01597 ; skirt
G1 X155.618 Y128.970 E0.01609 ; skirt
G1 X155.262 Y129.334 E0.01597 ; skirt
G1 X154.565 Y129.733 E0.02520 ; skirt
M73 P0 R74
G1 X153.774 Y129.877 E0.02520 ; skirt
G1 X96.239 Y129.877 E1.80398 ; skirt
G1 X95.725 Y129.818 E0.01621 ; skirt
G1 X95.233 Y129.648 E0.01633 ; skirt
G1 X94.789 Y129.375 E0.01633 ; skirt
G1 X94.416 Y129.012 E0.01633 ; skirt
G1 X94.017 Y128.315 E0.02520 ; skirt
G1 X93.873 Y127.528 E0.02508 ; skirt
G1 X93.873 Y82.485 E1.41229 ; skirt
G1 X93.933 Y81.967 E0.01633 ; skirt
G1 X94.103 Y81.479 E0.01621 ; skirt
G1 X94.377 Y81.036 E0.01633 ; skirt
G1 X94.738 Y80.666 E0.01621 ; skirt
G1 X95.383 Y80.297 E0.02332 ; skirt
;WIPE_START
G1 F8640.000
G1 X96.226 Y80.123 E-0.19868 ; wipe and retract
G1 X98.657 Y80.123 E-0.56132 ; wipe and retract
;WIPE_END
G1 E-0.04000 F2100.000 ; retract
G1 Z0.600 F10800.000 ; lift Z
G1 X96.837 Y83.087 ; move to first perimeter point
G1 Z0.200 ; restore layer Z
G1 E0.80000 F2100.000 ; unretract
;TYPE:Perimeter
G1 F1200.000
G1 X153.163 Y83.087 E1.76606 ; perimeter
G1 X153.163 Y126.913 E1.37413 ; perimeter
G1 X140.337 Y126.913 E0.40215 ; perimeter
G1 X140.337 Y121.913 E0.15677 ; perimeter
G1 X97.663 Y121.913 E1.33802 ; perimeter
G1 X97.663 Y126.913 E0.15677 ; perimeter
G1 X96.837 Y126.913 E0.02589 ; perimeter
G1 X96.837 Y83.147 E1.37225 ; perimeter
;WIPE_START
G1 F8640.000
G1 X100.129 Y83.144 E-0.76000 ; wipe and retract
;WIPE_END
G1 E-0.04000 F2100.000 ; retract
G1 Z0.600 F10800.000 ; lift Z
G1 X139.960 Y122.290 ; move to first perimeter point
G1 Z0.200 ; restore layer Z
G1 E0.80000 F2100.000 ; unretract
;TYPE:External perimeter
G1 F1200.000
G1 X98.040 Y122.290 E1.31437 ; perimeter
G1 X98.040 Y127.290 E0.15677 ; perimeter
G1 X96.460 Y127.290 E0.04954 ; perimeter
G1 X96.460 Y82.710 E1.39777 ; perimeter
G1 X153.540 Y82.710 E1.78970 ; perimeter
G1 X153.540 Y127.290 E1.39777 ; perimeter
M73 Q0 S74
G1 X139.960 Y127.290 E0.42579 ; perimeter
G1 X139.960 Y122.350 E0.15489 ; perimeter
G1 X139.802 Y121.923 F10800.000 ; move inwards before travel
;WIPE_START
G1 F8640.000
G1 X136.669 Y122.345 E-0.76000 ; wipe and retract
;WIPE_END
G1 E-0.04000 F2100.000 ; retract
G1 Z0.600 F10800.000 ; lift Z
G1 X140.450 Y126.319 ; move to first infill point
G1 Z0.200 ; restore layer Z
G1 E0.80000 F2100.000 ; unretract
;TYPE:Solid infill
;WIDTH:0.420199
G1 F1200.000
G1 X140.761 Y126.630 E0.01379 ; infill
G1 X141.295 Y126.630 E0.01674 ; infill
G1 X140.620 Y125.955 E0.02994 ; infill
G1 X140.620 Y125.422 E0.01674 ; infill
G1 X141.828 Y126.630 E0.05361 ; infill
G1 X142.362 Y126.630 E0.01674 ; infill
G1 X140.620 Y124.888 E0.07728 ; infill
G1 X140.620 Y124.355 E0.01674 ; infill
G1 X142.895 Y126.630 E0.10095 ; infill
G1 X143.429 Y126.630 E0.01674 ; infill
G1 X140.620 Y123.821 E0.12462 ; infill
G1 X140.620 Y123.288 E0.01674 ; infill
G1 X143.962 Y126.630 E0.14829 ; infill
G1 X144.496 Y126.630 E0.01674 ; infill
G1 X140.620 Y122.754 E0.17196 ; infill
G1 X140.620 Y122.220 E0.01674 ; infill
G1 X145.199 Y126.800 E0.20316 ; infill
;WIPE_START
G1 F8640.000
G1 X142.872 Y124.472 E-0.76000 ; wipe and retract
;WIPE_END
G1 E-0.04000 F2100.000 ; retract
G1 Z0.600 F10800.000 ; lift Z
G1 X153.050 Y83.963 ; move to first infill point
G1 Z0.200 ; restore layer Z
G1 E0.80000 F2100.000 ; unretract
G1 F1200.000
G1 X152.457 Y83.370 E0.02631 ; infill
G1 X151.923 Y83.370 E0.01674 ; infill
G1 X152.880 Y84.327 E0.04245 ; infill
G1 X152.880 Y84.860 E0.01674 ; infill
G1 X151.390 Y83.370 E0.06612 ; infill
G1 X150.856 Y83.370 E0.01674 ; infill
G1 X152.880 Y85.394 E0.08979 ; infill
G1 X152.880 Y85.927 E0.01674 ; infill
G1 X150.323 Y83.370 E0.11347 ; infill
G1 X149.789 Y83.370 E0.01674 ; infill
G1 X152.880 Y86.461 E0.13714 ; infill
G1 X152.880 Y86.995 E0.01674 ; infill
G1 X149.255 Y83.370 E0.16081 ; infill
M73 Q1 S74
G1 X148.722 Y83.370 E0.01674 ; infill
G1 X152.880 Y87.528 E0.18448 ; infill
M73 P1 R74
G1 X152.880 Y88.062 E0.01674 ; infill
G1 X148.188 Y83.370 E0.20815 ; infill
G1 X147.655 Y83.370 E0.01674 ; infill
G1 X152.880 Y88.595 E0.23182 ; infill
G1 X152.880 Y89.129 E0.01674 ; infill
G1 X147.121 Y83.370 E0.25549 ; infill
G1 X146.588 Y83.370 E0.01674 ; infill
G1 X152.880 Y89.662 E0.27916 ; infill
G1 X152.880 Y90.196 E0.01674 ; infill
G1 X146.054 Y83.370 E0.30283 ; infill
G1 X145.521 Y83.370 E0.01674 ; infill
G1 X152.880 Y90.729 E0.32651 ; infill
G1 X152.880 Y91.263 E0.01674 ; infill
G1 X144.987 Y83.370 E0.35018 ; infill
G1 X144.454 Y83.370 E0.01674 ; infill
G1 X152.880 Y91.796 E0.37385 ; infill
G1 X152.880 Y92.330 E0.01674 ; infill
G1 X143.920 Y83.370 E0.39752 ; infill
G1 X143.386 Y83.370 E0.01674 ; infill
G1 X152.880 Y92.864 E0.42119 ; infill
G1 X152.880 Y93.397 E0.01674 ; infill
G1 X142.853 Y83.370 E0.44486 ; infill
G1 X142.319 Y83.370 E0.01674 ; infill
G1 X152.880 Y93.931 E0.46853 ; infill
G1 X152.880 Y94.464 E0.01674 ; infill
G1 X141.786 Y83.370 E0.49220 ; infill
G1 X141.252 Y83.370 E0.01674 ; infill
G1 X152.880 Y94.998 E0.51587 ; infill
G1 X152.880 Y95.531 E0.01674 ; infill
G1 X140.719 Y83.370 E0.53955 ; infill
G1 X140.185 Y83.370 E0.01674 ; infill
G1 X152.880 Y96.065 E0.56322 ; infill
G1 X152.880 Y96.598 E0.01674 ; infill
G1 X139.652 Y83.370 E0.58689 ; infill
G1 X139.118 Y83.370 E0.01674 ; infill
G1 X152.880 Y97.132 E0.61056 ; infill
G1 X152.880 Y97.666 E0.01674 ; infill
G1 X138.584 Y83.370 E0.63423 ; infill
G1 X138.051 Y83.370 E0.01674 ; infill
G1 X152.880 Y98.199 E0.65790 ; infill
G1 X152.880 Y98.733 E0.01674 ; infill
G1 X137.517 Y83.370 E0.68157 ; infill
G1 X136.984 Y83.370 E0.01674 ; infill
G1 X152.880 Y99.266 E0.70524 ; infill
G1 X152.880 Y99.800 E0.01674 ; infill
G1 X136.450 Y83.370 E0.72892 ; infill
G1 X135.917 Y83.370 E0.01674 ; infill
G1 X152.880 Y100.333 E0.75259 ; infill
G1 X152.880 Y100.867 E0.01674 ; infill
G1 X135.383 Y83.370 E0.77626 ; infill
G1 X134.850 Y83.370 E0.01674 ; infill
G1 X152.880 Y101.400 E0.79993 ; infill
G1 X152.880 Y101.934 E0.01674 ; infill
G1 X134.316 Y83.370 E0.82360 ; infill
G1 X133.782 Y83.370 E0.01674 ; infill
G1 X152.880 Y102.468 E0.84727 ; infill
G1 X152.880 Y103.001 E0.01674 ; infill
G1 X133.249 Y83.370 E0.87094 ; infill
G1 X132.715 Y83.370 E0.01674 ; infill
G1 X152.880 Y103.535 E0.89461 ; infill
M73 P1 R73
G1 X152.880 Y104.068 E0.01674 ; infill
G1 X132.182 Y83.370 E0.91828 ; infill
G1 X131.648 Y83.370 E0.01674 ; infill
G1 X152.880 Y104.602 E0.94196 ; infill
G1 X152.880 Y105.135 E0.01674 ; infill
G1 X131.115 Y83.370 E0.96563 ; infill
G1 X130.581 Y83.370 E0.01674 ; infill
G1 X152.880 Y105.669 E0.98930 ; infill
G1 X152.880 Y106.202 E0.01674 ; infill
G1 X130.048 Y83.370 E1.01297 ; infill
G1 X129.514 Y83.370 E0.01674 ; infill
G1 X152.880 Y106.736 E1.03664 ; infill
G1 X152.880 Y107.270 E0.01674 ; infill
G1 X128.980 Y83.370 E1.06031 ; infill
G1 X128.447 Y83.370 E0.01674 ; infill
G1 X152.880 Y107.803 E1.08398 ; infill
G1 X152.880 Y108.337 E0.01674 ; infill
G1 X127.913 Y83.370 E1.10765 ; infill
G1 X127.380 Y83.370 E0.01674 ; infill
G1 X152.880 Y108.870 E1.13132 ; infill
G1 X152.880 Y109.404 E0.01674 ; infill
G1 X126.846 Y83.370 E1.15500 ; infill
M73 P2 R73
M73 Q2 S74
G1 X126.313 Y83.370 E0.01674 ; infill
G1 X152.880 Y109.937 E1.17867 ; infill
G1 X152.880 Y110.471 E0.01674 ; infill
G1 X125.779 Y83.370 E1.20234 ; infill
G1 X125.246 Y83.370 E0.01674 ; infill
G1 X152.880 Y111.004 E1.22601 ; infill
G1 X152.880 Y111.538 E0.01674 ; infill
G1 X124.712 Y83.370 E1.24968 ; infill
M73 Q2 S73
G1 X124.178 Y83.370 E0.01674 ; infill
G1 X152.880 Y112.072 E1.27335 ; infill
G1 X152.880 Y112.605 E0.01674 ; infill
G1 X123.645 Y83.370 E1.29702 ; infill
G1 X123.111 Y83.370 E0.01674 ; infill
G1 X152.880 Y113.139 E1.32069 ; infill
G1 X152.880 Y113.672 E0.01674 ; infill
G1 X122.578 Y83.370 E1.34437 ; infill
G1 X122.044 Y83.370 E0.01674 ; infill
G1 X152.880 Y114.206 E1.36804 ; infill
G1 X152.880 Y114.739 E0.01674 ; infill
G1 X121.511 Y83.370 E1.39171 ; infill
G1 X120.977 Y83.370 E0.01674 ; infill
G1 X152.880 Y115.273 E1.41538 ; infill
G1 X152.880 Y115.806 E0.01674 ; infill
G1 X120.444 Y83.370 E1.43905 ; infill
G1 X119.910 Y83.370 E0.01674 ; infill
G1 X152.880 Y116.340 E1.46272 ; infill
G1 X152.880 Y116.873 E0.01674 ; infill
G1 X119.377 Y83.370 E1.48639 ; infill
G1 X118.843 Y83.370 E0.01674 ; infill
G1 X152.880 Y117.407 E1.51006 ; infill
G1 X152.880 Y117.941 E0.01674 ; infill
G1 X118.309 Y83.370 E1.53373 ; infill
G1 X117.776 Y83.370 E0.01674 ; infill
G1 X152.880 Y118.474 E1.55741 ; infill
G1 X152.880 Y119.008 E0.01674 ; infill
G1 X117.242 Y83.370 E1.58108 ; infill
G1 X116.709 Y83.370 E0.01674 ; infill
G1 X152.880 Y119.541 E1.60475 ; infill
M73 P2 R72
G1 X152.880 Y120.075 E0.01674 ; infill
G1 X116.175 Y83.370 E1.62842 ; infill
M73 P3 R72
M73 Q3 S73
G1 X115.642 Y83.370 E0.01674 ; infill
G1 X152.880 Y120.608 E1.65209 ; infill
G1 X152.880 Y121.142 E0.01674 ; infill
G1 X115.108 Y83.370 E1.67576 ; infill
G1 X114.575 Y83.370 E0.01674 ; infill
G1 X152.880 Y121.675 E1.69943 ; infill
G1 X152.880 Y122.209 E0.01674 ; infill
G1 X114.041 Y83.370 E1.72310 ; infill
G1 X113.507 Y83.370 E0.01674 ; infill
G1 X152.880 Y122.743 E1.74677 ; infill
G1 X152.880 Y123.276 E0.01674 ; infill
G1 X112.974 Y83.370 E1.77045 ; infill
G1 X112.440 Y83.370 E0.01674 ; infill
G1 X152.880 Y123.810 E1.79412 ; infill
G1 X152.880 Y124.343 E0.01674 ; infill
G1 X111.907 Y83.370 E1.81779 ; infill
M73 Q3 S72
G1 X111.373 Y83.370 E0.01674 ; infill
G1 X152.880 Y124.877 E1.84146 ; infill
G1 X152.880 Y125.410 E0.01674 ; infill
G1 X110.840 Y83.370 E1.86513 ; infill
G1 X110.306 Y83.370 E0.01674 ; infill
G1 X152.880 Y125.944 E1.88880 ; infill
G1 X152.880 Y126.477 E0.01674 ; infill
G1 X109.773 Y83.370 E1.91247 ; infill
G1 X109.239 Y83.370 E0.01674 ; infill
G1 X152.499 Y126.630 E1.91925 ; infill
G1 X151.966 Y126.630 E0.01674 ; infill
G1 X108.705 Y83.370 E1.91925 ; infill
G1 X108.172 Y83.370 E0.01674 ; infill
G1 X151.432 Y126.630 E1.91925 ; infill
M73 P4 R72
M73 Q4 S72
G1 X150.899 Y126.630 E0.01674 ; infill
G1 X107.638 Y83.370 E1.91925 ; infill
G1 X107.105 Y83.370 E0.01674 ; infill
G1 X150.365 Y126.630 E1.91925 ; infill
G1 X149.831 Y126.630 E0.01674 ; infill
G1 X106.571 Y83.370 E1.91925 ; infill
G1 X106.038 Y83.370 E0.01674 ; infill
G1 X149.298 Y126.630 E1.91925 ; infill
M73 P4 R71
G1 X148.764 Y126.630 E0.01674 ; infill
G1 X105.504 Y83.370 E1.91925 ; infill
G1 X104.971 Y83.370 E0.01674 ; infill
G1 X148.231 Y126.630 E1.91925 ; infill
G1 X147.697 Y126.630 E0.01674 ; infill
G1 X104.437 Y83.370 E1.91925 ; infill
G1 X103.903 Y83.370 E0.01674 ; infill
G1 X147.164 Y126.630 E1.91925 ; infill
G1 X146.630 Y126.630 E0.01674 ; infill
G1 X103.370 Y83.370 E1.91925 ; infill
G1 X102.836 Y83.370 E0.01674 ; infill
G1 X146.097 Y126.630 E1.91925 ; infill
G1 X145.563 Y126.630 E0.01674 ; infill
G1 X102.303 Y83.370 E1.91925 ; infill
G1 X101.769 Y83.370 E0.01674 ; infill
G1 X140.030 Y121.630 E1.69742 ; infill
G1 X139.496 Y121.630 E0.01674 ; infill
G1 X101.236 Y83.370 E1.69742 ; infill
M73 Q4 S71
G1 X100.702 Y83.370 E0.01674 ; infill
G1 X138.962 Y121.630 E1.69742 ; infill
G1 X138.429 Y121.630 E0.01674 ; infill
G1 X100.169 Y83.370 E1.69742 ; infill
M73 P5 R71
M73 Q5 S71
G1 X99.635 Y83.370 E0.01674 ; infill
G1 X137.895 Y121.630 E1.69742 ; infill
G1 X137.362 Y121.630 E0.01674 ; infill
G1 X99.101 Y83.370 E1.69742 ; infill
G1 X98.568 Y83.370 E0.01674 ; infill
G1 X136.828 Y121.630 E1.69742 ; infill
G1 X136.295 Y121.630 E0.01674 ; infill
G1 X98.034 Y83.370 E1.69742 ; infill
G1 X97.501 Y83.370 E0.01674 ; infill
G1 X135.761 Y121.630 E1.69742 ; infill
G1 X135.228 Y121.630 E0.01674 ; infill
G1 X97.120 Y83.522 E1.69065 ; infill
G1 X97.120 Y84.056 E0.01674 ; infill
G1 X134.694 Y121.630 E1.66698 ; infill
G1 X134.160 Y121.630 E0.01674 ; infill
G1 X97.120 Y84.590 E1.64331 ; infill
G1 X97.120 Y85.123 E0.01674 ; infill
G1 X133.627 Y121.630 E1.61964 ; infill
G1 X133.093 Y121.630 E0.01674 ; infill
G1 X97.120 Y85.657 E1.59597 ; infill
G1 X97.120 Y86.190 E0.01674 ; infill
M73 P5 R70
G1 X132.560 Y121.630 E1.57229 ; infill
G1 X132.026 Y121.630 E0.01674 ; infill
G1 X97.120 Y86.724 E1.54862 ; infill
G1 X97.120 Y87.257 E0.01674 ; infill
G1 X131.493 Y121.630 E1.52495 ; infill
G1 X130.959 Y121.630 E0.01674 ; infill
G1 X97.120 Y87.791 E1.50128 ; infill
G1 X97.120 Y88.324 E0.01674 ; infill
G1 X130.426 Y121.630 E1.47761 ; infill
G1 X129.892 Y121.630 E0.01674 ; infill
G1 X97.120 Y88.858 E1.45394 ; infill
G1 X97.120 Y89.392 E0.01674 ; infill
G1 X129.358 Y121.630 E1.43027 ; infill
M73 P6 R70
G1 X128.825 Y121.630 E0.01674 ; infill
G1 X97.120 Y89.925 E1.40660 ; infill
M73 Q6 S71
G1 X97.120 Y90.459 E0.01674 ; infill
G1 X128.291 Y121.630 E1.38293 ; infill
G1 X127.758 Y121.630 E0.01674 ; infill
G1 X97.120 Y90.992 E1.35925 ; infill
G1 X97.120 Y91.526 E0.01674 ; infill
G1 X127.224 Y121.630 E1.33558 ; infill
M73 Q6 S70
G1 X126.691 Y121.630 E0.01674 ; infill
G1 X97.120 Y92.059 E1.31191 ; infill
G1 X97.120 Y92.593 E0.01674 ; infill
G1 X126.157 Y121.630 E1.28824 ; infill
G1 X125.624 Y121.630 E0.01674 ; infill
G1 X97.120 Y93.126 E1.26457 ; infill
G1 X97.120 Y93.660 E0.01674 ; infill
G1 X125.090 Y121.630 E1.24090 ; infill
G1 X124.556 Y121.630 E0.01674 ; infill
G1 X97.120 Y94.194 E1.21723 ; infill
G1 X97.120 Y94.727 E0.01674 ; infill
G1 X124.023 Y121.630 E1.19356 ; infill
G1 X123.489 Y121.630 E0.01674 ; infill
G1 X97.120 Y95.261 E1.16989 ; infill
G1 X97.120 Y95.794 E0.01674 ; infill
G1 X122.956 Y121.630 E1.14621 ; infill
G1 X122.422 Y121.630 E0.01674 ; infill
G1 X97.120 Y96.328 E1.12254 ; infill
G1 X97.120 Y96.861 E0.01674 ; infill
G1 X121.889 Y121.630 E1.09887 ; infill
G1 X121.355 Y121.630 E0.01674 ; infill
G1 X97.120 Y97.395 E1.07520 ; infill
G1 X97.120 Y97.928 E0.01674 ; infill
G1 X120.822 Y121.630 E1.05153 ; infill
G1 X120.288 Y121.630 E0.01674 ; infill
G1 X97.120 Y98.462 E1.02786 ; infill
G1 X97.120 Y98.996 E0.01674 ; infill
G1 X119.754 Y121.630 E1.00419 ; infill
G1 X119.221 Y121.630 E0.01674 ; infill
G1 X97.120 Y99.529 E0.98052 ; infill
G1 X97.120 Y100.063 E0.01674 ; infill
