; generated by PrusaSlicer 2.3.0+win64 on 2021-07-18 at 08:15:21 UTC

; 

; external perimeters extrusion width = 0.45mm
; perimeters extrusion width = 0.45mm
; infill extrusion width = 0.45mm
; solid infill extrusion width = 0.45mm
; top infill extrusion width = 0.40mm
; support material extrusion width = 0.35mm
; first layer extrusion width = 0.42mm

M73 P0 R15
M73 Q0 S15
M201 X1000 Y1000 Z200 E5000 ; sets maximum accelerations, mm/sec^2
M203 X200 Y200 Z12 E120 ; sets maximum feedrates, mm/sec
M204 P1250 R1250 T1250 ; sets acceleration (P, T) and retract acceleration (R), mm/sec^2
M205 X8.00 Y8.00 Z0.40 E4.50 ; sets the jerk limits, mm/sec
M205 S0 T0 ; sets the minimum extruding and travel feed rate, mm/sec
M107 ; disable fan
;TYPE:Custom
M862.3 P "MK3" ; printer model check
M862.1 P0.4 ; nozzle diameter check
M115 U3.9.2 ; tell printer latest fw version
G90 ; use absolute coordinates
M83 ; extruder relative mode
M104 S215 ; set extruder temp
M140 S60 ; set bed temp
M190 S60 ; wait for bed temp
M109 S215 ; wait for extruder temp
G28 W ; home all without mesh bed level
G80 ; mesh bed leveling
G1 Y-3.0 F1000.0 ; go outside print area
G92 E0.0
G1 X60.0 E9.0 F1000.0 ; intro line
G1 X100.0 E12.5 F1000.0 ; intro line
G92 E0.0
M221 S95

; Don't change E values below. Excessive value can damage the printer.

G21 ; set units to millimeters
G90 ; use absolute coordinates
M83 ; use relative distances for extrusion
M900 K0.05 ; Filament gcode LA 1.5
M900 K30 ; Filament gcode LA 1.0
;LAYER_CHANGE
;Z:0.2
;HEIGHT:0.2
;BEFORE_LAYER_CHANGE
G92 E0.0
;0.2


G1 E-0.80000 F2100.000 ; retract
G1 Z0.400 F10800.000 ; lift Z
;AFTER_LAYER_CHANGE
;0.2
G1 X117.628 Y84.601 ; move to first skirt point
G1 Z0.200 ; restore layer Z
G1 E0.80000 F2100.000 ; unretract
M204 S1000 ; adjust acceleration
;TYPE:Skirt
;WIDTH:0.42
G1 F1200.000
G1 X118.131 Y83.977 E0.02511 ; skirt
G1 X118.788 Y83.527 E0.02498 ; skirt
G1 X119.550 Y83.283 E0.02511 ; skirt
G1 X130.004 Y83.246 E0.32777 ; skirt
G1 X131.013 Y83.439 E0.03221 ; skirt
G1 X131.884 Y83.991 E0.03233 ; skirt
G1 X132.491 Y84.825 E0.03233 ; skirt
G1 X132.748 Y85.823 E0.03233 ; skirt
G1 X132.754 Y124.004 E1.19714 ; skirt
M73 P1 R15
M73 Q1 S15
G1 X132.674 Y124.658 E0.02065 ; skirt
G1 X132.368 Y125.406 E0.02536 ; skirt
G1 X131.857 Y126.034 E0.02536 ; skirt
G1 X131.186 Y126.485 E0.02536 ; skirt
G1 X130.413 Y126.723 E0.02536 ; skirt
G1 X119.988 Y126.754 E0.32689 ; skirt
G1 X119.342 Y126.674 E0.02039 ; skirt
G1 X118.534 Y126.332 E0.02752 ; skirt
G1 X117.875 Y125.752 E0.02752 ; skirt
G1 X117.432 Y124.995 E0.02752 ; skirt
G1 X117.249 Y124.136 E0.02752 ; skirt
G1 X117.246 Y85.996 E1.19585 ; skirt
G1 X117.326 Y85.342 E0.02065 ; skirt
G1 X117.605 Y84.656 E0.02323 ; skirt
G1 X117.952 Y84.799 F10800.000 ; move to first skirt point
G1 F1200.000
G1 X118.401 Y84.241 E0.02248 ; skirt
G1 X118.985 Y83.850 E0.02201 ; skirt
G1 X119.654 Y83.648 E0.02190 ; skirt
G1 X130.004 Y83.623 E0.32453 ; skirt
G1 X130.881 Y83.792 E0.02802 ; skirt
G1 X131.634 Y84.274 E0.02802 ; skirt
G1 X132.156 Y84.999 E0.02802 ; skirt
G1 X132.373 Y85.866 E0.02802 ; skirt
G1 X132.377 Y124.004 E1.19579 ; skirt
G1 X132.307 Y124.573 E0.01799 ; skirt
G1 X132.035 Y125.229 E0.02225 ; skirt
G1 X131.584 Y125.772 E0.02213 ; skirt
G1 X130.994 Y126.159 E0.02213 ; skirt
G1 X130.316 Y126.356 E0.02213 ; skirt
G1 X119.989 Y126.377 E0.32382 ; skirt
G1 X119.427 Y126.307 E0.01775 ; skirt
G1 X118.726 Y126.007 E0.02390 ; skirt
G1 X118.159 Y125.503 E0.02378 ; skirt
G1 X117.777 Y124.843 E0.02390 ; skirt
G1 X117.625 Y124.100 E0.02378 ; skirt
G1 X117.623 Y85.996 E1.19472 ; skirt
M73 P2 R14
M73 Q2 S15
G1 X117.693 Y85.427 E0.01799 ; skirt
G1 X117.929 Y84.855 E0.01940 ; skirt
;WIPE_START
G1 F8640.000
G1 X118.401 Y84.241 E-0.17889 ; wipe and retract
G1 X118.985 Y83.850 E-0.16211 ; wipe and retract
G1 X119.654 Y83.648 E-0.16124 ; wipe and retract
G1 X120.770 Y83.646 E-0.25775 ; wipe and retract
;WIPE_END
G1 E-0.04000 F2100.000 ; retract
G1 Z0.600 F10800.000 ; lift Z
G1 X120.587 Y86.587 ; move to first perimeter point
G1 Z0.200 ; restore layer Z
G1 E0.80000 F2100.000 ; unretract
;TYPE:Perimeter
G1 F1200.000
G1 X129.413 Y86.587 E0.27673 ; perimeter
G1 X129.413 Y123.413 E1.15465 ; perimeter
G1 X120.587 Y123.413 E0.27673 ; perimeter
G1 X120.587 Y110.587 E0.40215 ; perimeter
G1 X127.587 Y110.587 E0.21948 ; perimeter
G1 X127.587 Y99.413 E0.35036 ; perimeter
G1 X120.587 Y99.413 E0.21948 ; perimeter
G1 X120.587 Y86.647 E0.40026 ; perimeter
;WIPE_START
G1 F8640.000
G1 X123.878 Y86.625 E-0.76000 ; wipe and retract
;WIPE_END
G1 E-0.04000 F2100.000 ; retract
G1 Z0.600 F10800.000 ; lift Z
G1 X127.210 Y110.210 ; move to first perimeter point
G1 Z0.200 ; restore layer Z
G1 E0.80000 F2100.000 ; unretract
;TYPE:External perimeter
G1 F1200.000
G1 X127.210 Y99.790 E0.32671 ; perimeter
G1 X120.210 Y99.790 E0.21948 ; perimeter
G1 X120.210 Y86.210 E0.42579 ; perimeter
G1 X129.790 Y86.210 E0.30037 ; perimeter
M73 P3 R14
M73 Q3 S15
G1 X129.790 Y123.790 E1.17829 ; perimeter
G1 X120.210 Y123.790 E0.30037 ; perimeter
G1 X120.210 Y110.210 E0.42579 ; perimeter
G1 X127.150 Y110.210 E0.21760 ; perimeter
G1 X127.584 Y110.067 F10800.000 ; move inwards before travel
;WIPE_START
G1 F8640.000
G1 X127.169 Y106.919 E-0.76000 ; wipe and retract
;WIPE_END
G1 E-0.04000 F2100.000 ; retract
G1 Z0.600 F10800.000 ; lift Z
M73 Q3 S14
G1 X129.300 Y100.946 ; move to first infill point
G1 Z0.200 ; restore layer Z
G1 E0.80000 F2100.000 ; unretract
;TYPE:Solid infill
;WIDTH:0.424039
G1 F1200.000
G1 X127.870 Y99.516 E0.06408 ; infill
G1 X127.870 Y100.055 E0.01708 ; infill
G1 X129.130 Y101.315 E0.05648 ; infill
G1 X129.130 Y101.854 E0.01708 ; infill
G1 X127.870 Y100.594 E0.05648 ; infill
G1 X127.870 Y101.133 E0.01708 ; infill
G1 X129.130 Y102.393 E0.05648 ; infill
G1 X129.130 Y102.932 E0.01708 ; infill
G1 X127.870 Y101.672 E0.05648 ; infill
G1 X127.870 Y102.211 E0.01708 ; infill
G1 X129.130 Y103.471 E0.05648 ; infill
G1 X129.130 Y104.010 E0.01708 ; infill
G1 X127.870 Y102.750 E0.05648 ; infill
G1 X127.870 Y103.289 E0.01708 ; infill
G1 X129.130 Y104.549 E0.05648 ; infill
G1 X129.130 Y105.088 E0.01708 ; infill
G1 X127.870 Y103.828 E0.05648 ; infill
G1 X127.870 Y104.367 E0.01708 ; infill
G1 X129.130 Y105.627 E0.05648 ; infill
G1 X129.130 Y106.166 E0.01708 ; infill
G1 X127.870 Y104.906 E0.05648 ; infill
G1 X127.870 Y105.445 E0.01708 ; infill
G1 X129.130 Y106.705 E0.05648 ; infill
G1 X129.130 Y107.244 E0.01708 ; infill
G1 X127.870 Y105.983 E0.05648 ; infill
G1 X127.870 Y106.522 E0.01708 ; infill
G1 X129.130 Y107.783 E0.05648 ; infill
G1 X129.130 Y108.322 E0.01708 ; infill
G1 X127.870 Y107.061 E0.05648 ; infill
G1 X127.870 Y107.600 E0.01708 ; infill
G1 X129.130 Y108.861 E0.05648 ; infill
G1 X129.130 Y109.400 E0.01708 ; infill
G1 X127.870 Y108.139 E0.05648 ; infill
G1 X127.870 Y108.678 E0.01708 ; infill
G1 X129.130 Y109.939 E0.05648 ; infill
G1 X129.130 Y110.478 E0.01708 ; infill
G1 X127.870 Y109.217 E0.05648 ; infill
G1 X127.870 Y109.756 E0.01708 ; infill
G1 X129.130 Y111.017 E0.05648 ; infill
G1 X129.130 Y111.556 E0.01708 ; infill
G1 X127.870 Y110.295 E0.05648 ; infill
G1 X127.870 Y110.834 E0.01708 ; infill
G1 X129.130 Y112.095 E0.05648 ; infill
G1 X129.130 Y112.634 E0.01708 ; infill
G1 X127.366 Y110.870 E0.07904 ; infill
G1 X126.827 Y110.870 E0.01708 ; infill
G1 X129.130 Y113.173 E0.10320 ; infill
G1 X129.130 Y113.712 E0.01708 ; infill
G1 X126.288 Y110.870 E0.12735 ; infill
G1 X125.749 Y110.870 E0.01708 ; infill
G1 X129.130 Y114.251 E0.15151 ; infill
G1 X129.130 Y114.790 E0.01708 ; infill
G1 X125.210 Y110.870 E0.17566 ; infill
G1 X124.672 Y110.870 E0.01708 ; infill
G1 X129.130 Y115.328 E0.19982 ; infill
G1 X129.130 Y115.867 E0.01708 ; infill
G1 X124.133 Y110.870 E0.22398 ; infill
G1 X123.594 Y110.870 E0.01708 ; infill
G1 X129.130 Y116.406 E0.24813 ; infill
M73 P4 R14
M73 Q4 S14
G1 X129.130 Y116.945 E0.01708 ; infill
G1 X123.055 Y110.870 E0.27229 ; infill
G1 X122.516 Y110.870 E0.01708 ; infill
G1 X129.130 Y117.484 E0.29644 ; infill
G1 X129.130 Y118.023 E0.01708 ; infill
G1 X121.977 Y110.870 E0.32060 ; infill
G1 X121.438 Y110.870 E0.01708 ; infill
G1 X129.130 Y118.562 E0.34475 ; infill
G1 X129.130 Y119.101 E0.01708 ; infill
G1 X120.899 Y110.870 E0.36891 ; infill
G1 X120.870 Y110.870 E0.00091 ; infill
G1 X120.870 Y111.380 E0.01617 ; infill
G1 X129.130 Y119.640 E0.37020 ; infill
G1 X129.130 Y120.179 E0.01708 ; infill
G1 X120.870 Y111.919 E0.37020 ; infill
G1 X120.870 Y112.458 E0.01708 ; infill
G1 X129.130 Y120.718 E0.37020 ; infill
G1 X129.130 Y121.257 E0.01708 ; infill
G1 X120.870 Y112.997 E0.37020 ; infill
G1 X120.870 Y113.536 E0.01708 ; infill
G1 X129.130 Y121.796 E0.37020 ; infill
G1 X129.130 Y122.335 E0.01708 ; infill
G1 X120.870 Y114.075 E0.37020 ; infill
G1 X120.870 Y114.614 E0.01708 ; infill
G1 X129.130 Y122.874 E0.37020 ; infill
G1 X129.130 Y123.130 E0.00811 ; infill
G1 X128.847 Y123.130 E0.00897 ; infill
G1 X120.870 Y115.153 E0.35751 ; infill
G1 X120.870 Y115.692 E0.01708 ; infill
G1 X128.308 Y123.130 E0.33335 ; infill
G1 X127.769 Y123.130 E0.01708 ; infill
G1 X120.870 Y116.231 E0.30920 ; infill
M73 P5 R14
G1 X120.870 Y116.770 E0.01708 ; infill
G1 X127.230 Y123.130 E0.28504 ; infill
M73 Q5 S14
G1 X126.691 Y123.130 E0.01708 ; infill
G1 X120.870 Y117.309 E0.26089 ; infill
G1 X120.870 Y117.848 E0.01708 ; infill
G1 X126.152 Y123.130 E0.23673 ; infill
G1 X125.613 Y123.130 E0.01708 ; infill
G1 X120.870 Y118.387 E0.21258 ; infill
G1 X120.870 Y118.926 E0.01708 ; infill
G1 X125.074 Y123.130 E0.18842 ; infill
G1 X124.535 Y123.130 E0.01708 ; infill
G1 X120.870 Y119.465 E0.16426 ; infill
G1 X120.870 Y120.004 E0.01708 ; infill
G1 X123.996 Y123.130 E0.14011 ; infill
G1 X123.457 Y123.130 E0.01708 ; infill
G1 X120.870 Y120.543 E0.11595 ; infill
G1 X120.870 Y121.082 E0.01708 ; infill
G1 X122.918 Y123.130 E0.09180 ; infill
G1 X122.379 Y123.130 E0.01708 ; infill
G1 X120.870 Y121.621 E0.06764 ; infill
G1 X120.870 Y122.160 E0.01708 ; infill
G1 X121.840 Y123.130 E0.04349 ; infill
G1 X121.301 Y123.130 E0.01708 ; infill
G1 X120.700 Y122.529 E0.02694 ; infill
;WIPE_START
G1 F8640.000
G1 X121.301 Y123.130 E-0.19626 ; wipe and retract
G1 X121.840 Y123.130 E-0.12445 ; wipe and retract
G1 X120.870 Y122.160 E-0.31686 ; wipe and retract
G1 X120.870 Y121.630 E-0.12242 ; wipe and retract
;WIPE_END
G1 E-0.04000 F2100.000 ; retract
G1 Z0.600 F10800.000 ; lift Z
G1 X121.186 Y99.300 ; move to first infill point
G1 Z0.200 ; restore layer Z
G1 E0.80000 F2100.000 ; unretract
G1 F1200.000
G1 X120.870 Y98.983 E0.01418 ; infill
G1 X120.870 Y98.445 E0.01708 ; infill
G1 X121.555 Y99.130 E0.03073 ; infill
G1 X122.094 Y99.130 E0.01708 ; infill
G1 X120.870 Y97.906 E0.05488 ; infill
G1 X120.870 Y97.367 E0.01708 ; infill
G1 X122.633 Y99.130 E0.07904 ; infill
G1 X123.172 Y99.130 E0.01708 ; infill
G1 X120.870 Y96.828 E0.10319 ; infill
G1 X120.870 Y96.289 E0.01708 ; infill
G1 X123.711 Y99.130 E0.12735 ; infill
G1 X124.250 Y99.130 E0.01708 ; infill
G1 X120.870 Y95.750 E0.15150 ; infill
G1 X120.870 Y95.211 E0.01708 ; infill
G1 X124.789 Y99.130 E0.17566 ; infill
G1 X125.328 Y99.130 E0.01708 ; infill
G1 X120.870 Y94.672 E0.19982 ; infill
G1 X120.870 Y94.133 E0.01708 ; infill
G1 X125.867 Y99.130 E0.22397 ; infill
G1 X126.406 Y99.130 E0.01708 ; infill
G1 X120.870 Y93.594 E0.24813 ; infill
G1 X120.870 Y93.055 E0.01708 ; infill
G1 X126.945 Y99.130 E0.27228 ; infill
G1 X127.484 Y99.130 E0.01708 ; infill
G1 X120.870 Y92.516 E0.29644 ; infill
G1 X120.870 Y91.977 E0.01708 ; infill
G1 X129.130 Y100.237 E0.37020 ; infill
G1 X129.130 Y99.698 E0.01708 ; infill
G1 X120.870 Y91.438 E0.37020 ; infill
M73 P6 R14
G1 X120.870 Y90.899 E0.01708 ; infill
G1 X129.130 Y99.159 E0.37020 ; infill
M73 Q6 S14
G1 X129.130 Y98.620 E0.01708 ; infill
G1 X120.870 Y90.360 E0.37020 ; infill
G1 X120.870 Y89.821 E0.01708 ; infill
G1 X129.130 Y98.081 E0.37020 ; infill
G1 X129.130 Y97.542 E0.01708 ; infill
G1 X120.870 Y89.282 E0.37020 ; infill
G1 X120.870 Y88.743 E0.01708 ; infill
G1 X129.130 Y97.003 E0.37020 ; infill
G1 X129.130 Y96.464 E0.01708 ; infill
G1 X120.870 Y88.204 E0.37020 ; infill
G1 X120.870 Y87.665 E0.01708 ; infill
G1 X129.130 Y95.925 E0.37020 ; infill
G1 X129.130 Y95.386 E0.01708 ; infill
G1 X120.870 Y87.126 E0.37020 ; infill
G1 X120.870 Y86.870 E0.00811 ; infill
G1 X121.153 Y86.870 E0.00897 ; infill
G1 X129.130 Y94.847 E0.35751 ; infill
G1 X129.130 Y94.308 E0.01708 ; infill
G1 X121.692 Y86.870 E0.33336 ; infill
G1 X122.231 Y86.870 E0.01708 ; infill
G1 X129.130 Y93.769 E0.30920 ; infill
G1 X129.130 Y93.230 E0.01708 ; infill
G1 X122.770 Y86.870 E0.28505 ; infill
G1 X123.309 Y86.870 E0.01708 ; infill
G1 X129.130 Y92.691 E0.26089 ; infill
G1 X129.130 Y92.152 E0.01708 ; infill
G1 X123.848 Y86.870 E0.23674 ; infill
G1 X124.387 Y86.870 E0.01708 ; infill
G1 X129.130 Y91.613 E0.21258 ; infill
G1 X129.130 Y91.074 E0.01708 ; infill
G1 X124.926 Y86.870 E0.18843 ; infill
G1 X125.465 Y86.870 E0.01708 ; infill
G1 X129.130 Y90.535 E0.16427 ; infill
M73 P7 R14
G1 X129.130 Y89.996 E0.01708 ; infill
G1 X126.004 Y86.870 E0.14011 ; infill
G1 X126.543 Y86.870 E0.01708 ; infill
G1 X129.130 Y89.457 E0.11596 ; infill
M73 Q7 S14
G1 X129.130 Y88.918 E0.01708 ; infill
G1 X127.082 Y86.870 E0.09180 ; infill
G1 X127.621 Y86.870 E0.01708 ; infill
G1 X129.130 Y88.379 E0.06765 ; infill
G1 X129.130 Y87.840 E0.01708 ; infill
G1 X128.160 Y86.870 E0.04349 ; infill
G1 X128.699 Y86.870 E0.01708 ; infill
G1 X129.300 Y87.471 E0.02694 ; infill
M106 S84.15 ; enable fan
;LAYER_CHANGE
;Z:0.35
;HEIGHT:0.15
;BEFORE_LAYER_CHANGE
G92 E0.0
;0.35


;WIPE_START
G1 F8640.000
G1 X128.699 Y86.870 E-0.19630 ; wipe and retract
G1 X128.160 Y86.870 E-0.12445 ; wipe and retract
G1 X129.130 Y87.840 E-0.31690 ; wipe and retract
G1 X129.130 Y88.370 E-0.12235 ; wipe and retract
;WIPE_END
G1 E-0.04000 F2100.000 ; retract
G1 Z0.600 F10800.000 ; lift Z
;AFTER_LAYER_CHANGE
;0.35
M104 S210 ; set temperature
G1 X132.491 Y84.825 ; move to first skirt point
G1 Z0.350 ; restore layer Z
G1 E0.80000 F2100.000 ; unretract
;TYPE:Skirt
;WIDTH:0.42
G1 F3000.000
G1 X132.748 Y85.823 E0.02494 ; skirt
G1 X132.754 Y124.004 E0.92340 ; skirt
G1 X132.674 Y124.658 E0.01593 ; skirt
G1 X132.368 Y125.406 E0.01956 ; skirt
G1 X131.857 Y126.034 E0.01956 ; skirt
G1 X131.186 Y126.485 E0.01956 ; skirt
G1 X130.413 Y126.723 E0.01956 ; skirt
G1 X119.988 Y126.754 E0.25214 ; skirt
G1 X119.342 Y126.674 E0.01573 ; skirt
G1 X118.534 Y126.332 E0.02123 ; skirt
G1 X117.875 Y125.752 E0.02123 ; skirt
G1 X117.432 Y124.995 E0.02123 ; skirt
G1 X117.249 Y124.136 E0.02123 ; skirt
G1 X117.246 Y85.996 E0.92241 ; skirt
G1 X117.326 Y85.342 E0.01593 ; skirt
G1 X117.628 Y84.601 E0.01937 ; skirt
G1 X118.131 Y83.977 E0.01937 ; skirt
G1 X118.788 Y83.527 E0.01927 ; skirt
G1 X119.550 Y83.283 E0.01937 ; skirt
G1 X130.004 Y83.246 E0.25283 ; skirt
G1 X131.013 Y83.439 E0.02484 ; skirt
G1 X131.884 Y83.991 E0.02494 ; skirt
G1 X132.455 Y84.776 E0.02349 ; skirt
G1 X132.153 Y84.994 F10800.000 ; move to first skirt point
G1 F3000.000
G1 X132.373 Y85.866 E0.02174 ; skirt
G1 X132.377 Y124.004 E0.92237 ; skirt
G1 X132.307 Y124.573 E0.01388 ; skirt
G1 X132.035 Y125.229 E0.01716 ; skirt
G1 X131.584 Y125.772 E0.01707 ; skirt
G1 X130.994 Y126.159 E0.01707 ; skirt
G1 X130.316 Y126.356 E0.01707 ; skirt
G1 X119.989 Y126.377 E0.24978 ; skirt
G1 X119.427 Y126.307 E0.01369 ; skirt
G1 X118.726 Y126.007 E0.01844 ; skirt
G1 X118.159 Y125.503 E0.01835 ; skirt
G1 X117.777 Y124.843 E0.01844 ; skirt
G1 X117.625 Y124.100 E0.01835 ; skirt
G1 X117.623 Y85.996 E0.92154 ; skirt
G1 X117.693 Y85.427 E0.01388 ; skirt
G1 X117.959 Y84.781 E0.01689 ; skirt
G1 X118.401 Y84.241 E0.01689 ; skirt
G1 X118.985 Y83.850 E0.01698 ; skirt
G1 X119.654 Y83.648 E0.01689 ; skirt
G1 X130.004 Y83.623 E0.25032 ; skirt
G1 X130.881 Y83.792 E0.02161 ; skirt
G1 X131.634 Y84.274 E0.02161 ; skirt
G1 X132.118 Y84.945 E0.02002 ; skirt
;WIPE_START
G1 F8640.000
G1 X132.373 Y85.866 E-0.22055 ; wipe and retract
G1 X132.374 Y88.202 E-0.53945 ; wipe and retract
;WIPE_END
G1 E-0.04000 F2100.000 ; retract
G1 Z0.750 F10800.000 ; lift Z
